src/images_karasa_jaga_svg/sw/res/emptypage_10x14.svg

<svg viewBox="0 0 14 10" xmlns="http://www.w3.org/2000/svg"><path d="m3 10v-10h1 6 1v1 5 1l-3 3h-1-3zm1-1h3v-2-1h1 2v-5h-6zm4 0 2-2h-2z" fill="#8c8c8c"/></svg>

<?xml version="1.0" encoding="UTF-8" standalone="no"?>
<svg
   xmlns:dc="http://purl.org/dc/elements/1.1/"
   xmlns:cc="http://creativecommons.org/ns#"
   xmlns:rdf="http://www.w3.org/1999/02/22-rdf-syntax-ns#"
   xmlns:svg="http://www.w3.org/2000/svg"
   xmlns="http://www.w3.org/2000/svg"
   xmlns:sodipodi="http://sodipodi.sourceforge.net/DTD/sodipodi-0.dtd"
   xmlns:inkscape="http://www.inkscape.org/namespaces/inkscape"
   viewBox="0 0 14 10"
   version="1.1"
   id="svg4"
   sodipodi:docname="emptypage_10x14.svg"
   inkscape:version="0.92.3 (unknown)"
   inkscape:export-filename="/home/rizmut/Dokumen/Rizmut/Github/libreoffice-style-karasa-jaga/build/images_karasa_jaga/sw/res/emptypage_10x14.png"
   inkscape:export-xdpi="96"
   inkscape:export-ydpi="96">
  <metadata
     id="metadata10">
    <rdf:RDF>
      <cc:Work
         rdf:about="">
        <dc:format>image/svg+xml</dc:format>
        <dc:type
           rdf:resource="http://purl.org/dc/dcmitype/StillImage" />
        <dc:title></dc:title>
      </cc:Work>
    </rdf:RDF>
  </metadata>
  <defs
     id="defs8" />
  <sodipodi:namedview
     pagecolor="#ffffff"
     bordercolor="#666666"
     borderopacity="1"
     objecttolerance="10"
     gridtolerance="10"
     guidetolerance="10"
     inkscape:pageopacity="0"
     inkscape:pageshadow="2"
     inkscape:window-width="1366"
     inkscape:window-height="706"
     id="namedview6"
     showgrid="true"
     inkscape:zoom="16.68772"
     inkscape:cx="-3.5712121"
     inkscape:cy="4.8055527"
     inkscape:window-x="0"
     inkscape:window-y="0"
     inkscape:window-maximized="1"
     inkscape:current-layer="svg4">
    <inkscape:grid
       type="xygrid"
       id="grid817" />
  </sodipodi:namedview>
  <path
     style="fill:#8c8c8c;fill-opacity:1"
     d="M 3,10 V 0 h 1 6 1 V 1 6 7 L 8,10 H 7 4 Z M 4,9 H 7 V 7 6 h 1 2 V 1 H 4 Z M 8,9 10,7 H 8 Z"
     id="path2"
     inkscape:connector-curvature="0" />
</svg>
